img/fb_w.svg

<svg width="100%" height="100%" viewBox="0 0 87 87" fill="none" xmlns="http://www.w3.org/2000/svg">
<rect x="1.31982" y="1.14502" width="84.2899" height="84.2899" fill="white" stroke="black" stroke-width="2"/>
<path d="M49.1372 28.0712C50.1065 28.0712 51.118 28.1555 52.2559 28.1976V25.8797C50.9073 25.7111 49.6851 25.6689 48.6315 25.6689C43.3212 25.6689 41.0875 27.144 41.0875 33.0022V35.1094H35.2294V37.4695H41.0875V57.1934H44.122V37.4695H51.4973V35.1094H44.122V33.3393C44.122 29.3777 45.1334 28.0712 49.1372 28.0712Z" fill="black"/>
</svg>

<svg viewBox="0 0 87 87" fill="none" xmlns="http://www.w3.org/2000/svg"><path fill="#fff" stroke="#000" stroke-width="2" d="M1.32 1.145h84.29v84.29H1.32z"/><path d="M49.137 28.071c.97 0 1.981.084 3.119.127V25.88a28.974 28.974 0 0 0-3.624-.211c-5.31 0-7.544 1.475-7.544 7.333v2.107h-5.859v2.36h5.858v19.724h3.035V37.47h7.375v-2.36h-7.375v-1.77c0-3.961 1.011-5.268 5.015-5.268z" fill="#000"/></svg>
